X:256
%%etbk:tnset id:77,pos:1,rep:3x,ant:
%%etbk:wsite http://www.thesession.org/tunes/display/335
%%etbk:pldat 2016-07-29T16:06,2016-07-26T17:23,2015-07-19T14:20,2015-03-24T16:19,2015-01-24T12:50,2014-12-27T14:44,2014-12-20T14:42,2014-12-11T18:56,2014-09-11T19:09,2014-05-19T18:11,2014-05-14T16:39,2014-04-07T19:15,2014-03-25T16:34,2014-02-12T18:35,2014-02-11T19:21,2013-12-11T16:23,2013-11-27T18:30,2013-10-21T18:33,2013-10-05T15:10,2013-09-02T18:56,2013-05-06T18:40
T: Sliabh Russell
Z: Piano Box Version by Martin Fleischmann
H: Created 2013-02-19 /  Last Modified 2013-02-19
M: 6/8
L: 1/8
R: jig
K: Ador
|: "am"!5!e!1!AA !2!Bc!4!d | !2!e!5!af !4!ged | !2!e!1!d!2!B !3!c2!1!A | "em"!2!B!1!B!2!B !2!Bc!4!d |
"am"!5!e!1!AA !2!Bc!4!d | !2!e!5!af !4!ged | !2!e!1!d!2!B !3!cB!1!A | "em"!2!B!1!A!2!G "am"!1!A3:|
|:"am"!2!e!5!aa !2!efg | !5!agf !4!ged | !2!eaa !2!efg | "em"!3!fed !2!eee |
"am"!2!e!5!aa !2!efg | !5!agf !4!ged | !2!e!1!d!2!B !3!cB!1!A | "em"!2!B!1!A!2!G "am"!1!A3:|


